svg/steam.svg

<?xml version="1.0" ?><svg height="250px" version="1.1" viewBox="0 0 250 250" width="250px" xmlns="http://www.w3.org/2000/svg" xmlns:xlink="http://www.w3.org/1999/xlink"><title/><desc/><defs><linearGradient id="linearGradient-1" x1="50%" x2="50%" y1="0%" y2="100%"><stop offset="0%" stop-color="#111D2E"/><stop offset="21.248%" stop-color="#051839"/><stop offset="40.695%" stop-color="#0A1B48"/><stop offset="58.11%" stop-color="#132E62"/><stop offset="73.76%" stop-color="#144B7E"/><stop offset="87.279%" stop-color="#136497"/><stop offset="100%" stop-color="#1387B8"/></linearGradient></defs><g fill="none" fill-rule="evenodd" id="steam_logo" stroke="none" stroke-width="1"><path d="M4.98388829,160.954936 C20.443609,212.467811 68.2663802,250 124.865736,250 C193.974221,250 250,194.034335 250,125 C250,55.9645923 193.974221,0 124.865736,0 C58.5488722,0 4.28571429,51.5332618 0,116.695279 C8.09785177,130.27897 11.2577873,138.680258 4.98506982,160.954936 L4.98388829,160.954936 Z" fill="url(#linearGradient-1)" id="BG"/><path d="M118.897563,97.8643356 C118.897563,98.0712933 118.897563,98.2782509 118.908337,98.4725376 L88.192176,142.199728 C83.2164768,141.977988 78.2235382,142.833272 73.4891895,144.744462 C71.4021541,145.578628 69.4465686,146.602857 67.6116582,147.785472 L0.1638896,120.574768 C0.164417554,120.574768 -1.39680774,145.737014 5.10726509,164.489909 L52.789074,183.770757 C55.1831848,194.255907 62.522826,203.45285 73.3512749,207.877097 C91.0679103,215.131174 111.495429,206.863427 118.865239,189.493769 C120.783114,184.953372 121.677403,180.191235 121.548109,175.439657 L165.497604,144.659989 C165.853165,144.670549 166.219501,144.681108 166.575062,144.681108 C192.875802,144.681108 214.252561,123.668573 214.252561,97.8643356 C214.252561,72.0579865 192.875802,51.0644582 166.575062,51.0644582 C140.285096,51.0644582 118.897563,72.0579865 118.897563,97.8643356 Z M111.527753,186.473878 C105.823692,199.894446 90.0863464,206.261561 76.4069447,200.675817 C70.0962755,198.099405 65.331758,193.379504 62.5831636,187.751524 L78.1039404,194.055284 C88.192176,198.173319 99.7662256,193.485095 103.959691,183.601812 C108.166085,173.707971 103.394025,162.346419 93.3111771,158.228385 L77.2667559,151.713443 C83.4578273,149.411568 90.4957803,149.327095 97.0715041,152.009097 C103.701101,154.712217 108.844883,159.801685 111.570851,166.306068 C114.296819,172.81045 114.286044,179.990613 111.527753,186.473878 Z M166.575062,129.053695 C149.066376,129.053695 134.811612,115.062937 134.811612,97.8643356 C134.811612,80.6794612 149.066376,66.6844796 166.575062,66.6844796 C184.094523,66.6844796 198.349287,80.6794612 198.349287,97.8643356 C198.349287,115.062937 184.094523,129.053695 166.575062,129.053695 Z M142.774023,97.8168199 C142.774023,84.8788004 153.462403,74.385204 166.628935,74.385204 C179.806241,74.385204 190.494621,84.8788004 190.494621,97.8168199 C190.494621,110.755895 179.806241,121.239989 166.628935,121.239989 C153.462403,121.239989 142.774023,110.755895 142.774023,97.8168199 Z" fill="#F2F2F2" fill-rule="nonzero" id="Shape"/></g></svg>

<svg xmlns="http://www.w3.org/2000/svg" width="250" height="250" viewBox="0 0 250 250"><defs><linearGradient id="a" x1="50%" x2="50%" y1="0%" y2="100%"><stop offset="0%" stop-color="#111D2E"/><stop offset="21.248%" stop-color="#051839"/><stop offset="40.695%" stop-color="#0A1B48"/><stop offset="58.11%" stop-color="#132E62"/><stop offset="73.76%" stop-color="#144B7E"/><stop offset="87.279%" stop-color="#136497"/><stop offset="100%" stop-color="#1387B8"/></linearGradient></defs><g fill="none" fill-rule="evenodd"><path fill="url(#a)" d="M4.984 160.955C20.444 212.468 68.266 250 124.866 250 193.974 250 250 194.034 250 125 250 55.965 193.974 0 124.866 0 58.549 0 4.286 51.533 0 116.695c8.098 13.584 11.258 21.985 4.985 44.26z"/><path fill="#F2F2F2" fill-rule="nonzero" d="M118.898 97.864c0 .207 0 .414.01.609L88.192 142.2c-4.976-.222-9.968.633-14.703 2.544a34.398 34.398 0 0 0-5.877 3.041L.164 120.575s-1.56 25.162 4.943 43.915l47.682 19.28c2.394 10.486 9.734 19.683 20.562 24.107 17.717 7.254 38.144-1.014 45.514-18.383 1.918-4.54 2.812-9.303 2.683-14.054l43.95-30.78c.355.01.722.021 1.077.021 26.3 0 47.678-21.012 47.678-46.817 0-25.806-21.377-46.8-47.678-46.8-26.29 0-47.677 20.994-47.677 46.8m-7.37 88.61c-5.704 13.42-21.442 19.788-35.121 14.202a26.472 26.472 0 0 1-13.824-12.924l15.52 6.303c10.09 4.118 21.663-.57 25.857-10.453 4.206-9.894-.566-21.256-10.649-25.374l-16.044-6.515c6.19-2.301 13.229-2.386 19.805.296 6.63 2.703 11.773 7.793 14.499 14.297 2.726 6.504 2.715 13.685-.043 20.168m55.047-57.42c-17.509 0-31.763-13.991-31.763-31.19 0-17.185 14.254-31.18 31.763-31.18 17.52 0 31.774 13.995 31.774 31.18 0 17.199-14.254 31.19-31.774 31.19m-23.801-31.237c0-12.938 10.688-23.432 23.855-23.432 13.177 0 23.866 10.494 23.866 23.432 0 12.939-10.689 23.423-23.866 23.423-13.167 0-23.855-10.484-23.855-23.423"/></g></svg>
